images/vendors/vendor-handcart.svg

<svg clip-rule="evenodd" fill-rule="evenodd" stroke-linejoin="round" stroke-miterlimit="2" viewBox="0 0 140 220" xmlns="http://www.w3.org/2000/svg"><path d="m-2.441-7.43h9.797l-1.136 6.525-9.456-1.518z" fill="#342d28" fill-rule="nonzero" transform="matrix(-.164255 1.25933 1.25933 .164255 70.3248 211.872)"/><path d="m0-7.936 1.232 9.088h4.808l.705-1.993-1.254-8.247z" fill="#342d28" fill-rule="nonzero" transform="matrix(1.27 0 0 1.27 70.458 217.966)"/><path d="m0-2.462-2.58-1.72-1.877-5.317-4.332 1.236-1.374 3.377-2.971 1.486 6.468 10.437z" fill="#524038" fill-rule="nonzero" transform="matrix(1.27 0 0 1.27 79.977 70.9594)"/><path d="m0 18.294h-3.903l-4.203-5.404.751-11.558 1.604-1.332 7.942.08 2.61 1.852-.151 10.958z" fill="#6e5a4d" fill-rule="nonzero" transform="matrix(1.27 0 0 1.27 74.4381 40.4756)"/><path d="m-2.811-4.495h2.571l.278 4.471-2.624-.093z" fill="#6e5a4d" fill-rule="nonzero" transform="matrix(-1.26982 .0212461 .0212461 1.26982 61.2625 54.0012)"/><path d="m-.552-.42h2.688l.789-3.675-2.188-.688z" fill="#6e5a4d" fill-rule="nonzero" transform="matrix(1.22539 .333639 .333639 -1.22539 80.9209 48.6756)"/><path d="m0-73.345 2.493 73.043 5.068-.14 2.703-63.678.028 26.177-.591 37.943 5.393-1.173 1.818-36.355 3.672-35.349z" fill="#5c5e5f" fill-rule="nonzero" transform="matrix(1.27 0 0 1.27 58.2023 207.96)"/><path d="m0-63.769-.696 28.128-1.513 35.641-5.678-17.728-.608-37.659z" fill="#3a3b3b" fill-rule="nonzero" transform="matrix(1.27 0 0 1.27 70.6104 207.399)"/><path d="m0-10.166 1.517 3.724c.053.132.077.273.069.415l-.326 5.755c-.036.646-.692 1.07-1.296.838l-.631-.242c-.344-.132-.581-.449-.61-.816l-.445-5.544.091.84c.059.548-.357 1.032-.908 1.057-.603.027-1.08-.506-.986-1.103l.564-3.588c.032-.201.127-.387.271-.53l1.132-1.124c.484-.48 1.301-.314 1.558.318" fill="#6e5a4d" fill-rule="nonzero" transform="matrix(1.27 0 0 1.27 99.6697 138.847)"/><path d="m0-10.796-1.617 4.078.143 6.718 2.64-.347.535-6.142-.212 1.851 2.272.313-.763-5.092z" fill="#6e5a4d" fill-rule="nonzero" transform="matrix(1.27 0 0 1.27 46.4315 141.543)"/><path d="m0-49.613-5.668 2.463-7.692 46.603 3.283.547 7.379-42.929-1.25 31.361 20.64.47-1.72-29.328 10.562 37.571c.128.592.767.918 1.32.673l1.256-.554c.4-.177.63-.603.556-1.035l-10.096-41.659-5.317-3.246-7.622-.453z" fill="#e7d9b4" fill-rule="nonzero" transform="matrix(1.27 0 0 1.27 63.1518 129.501)"/><path d="m0-24.796 1.51 24.796-20.64-.469.18-5.433" fill="#dccdab" fill-rule="nonzero" transform="matrix(1.27 0 0 1.27 82.4287 115.405)"/><path d="m32.37475 188.64686h10.033v2.50825h-10.033z" fill="#645849" stroke-width="1.27"/><path d="m0-30.613h1.975v30.613z" fill="#948976" fill-rule="nonzero" transform="matrix(1.27 0 0 1.27 42.4092 188.647)"/><path d="m0 28.638-1.975 1.975v-32.588z" fill="#7a705d" fill-rule="nonzero" transform="matrix(1.27 0 0 1.27 44.9175 152.277)"/><path d="m0-32.588h1.975v32.588z" fill="#7a705d" fill-rule="nonzero" transform="matrix(1.27 0 0 1.27 29.868 191.156)"/><path d="m0-32.588 1.975 32.588-1.975-1.975z" fill="#948976" fill-rule="nonzero" transform="matrix(1.27 0 0 1.27 29.868 191.156)"/><path d="m0 47.4h-1.862c-.408-.408-.636-.636-1.044-1.044v-45.312l1.044-1.044h1.862l1.044 1.044v45.312c-.408.408-.636.636-1.044 1.044" fill="#292b29" fill-rule="nonzero" transform="matrix(1.27 0 0 1.27 38.5752 159.802)"/><path d="m97.5829 188.64686h10.033v2.50825h-10.033z" fill="#645849" stroke-width="1.27"/><g fill-rule="nonzero"><path d="m0-30.613h1.975v30.613z" fill="#948976" transform="matrix(1.27 0 0 1.27 107.624 188.647)"/><path d="m0 28.638-1.975 1.975v-32.588z" fill="#7a705d" transform="matrix(1.27 0 0 1.27 110.132 152.277)"/><path d="m0-32.588h1.975v32.588z" fill="#7a705d" transform="matrix(1.27 0 0 1.27 95.0825 191.156)"/><path d="m0-32.588 1.975 32.588-1.975-1.975z" fill="#948976" transform="matrix(1.27 0 0 1.27 95.0825 191.156)"/><path d="m0 47.4h-1.862c-.408-.408-.636-.636-1.044-1.044v-45.312l1.044-1.044h1.862l1.044 1.044v45.312c-.408.408-.636.636-1.044 1.044" fill="#292b29" transform="matrix(1.27 0 0 1.27 103.79 159.802)"/><path d="m2.184-9.249h8.832l-7.066 14.131-5.299-7.066z" fill="#fce887" transform="matrix(-.69249 1.38498 1.38498 .69249 66.1147 132.022)"/><path d="m.417 4.625h4.416l1.767-3.533-2.65-3.533z" fill="#e49f7b" transform="matrix(.74994 -1.49988 -1.49988 -.74994 41.144 140.9066)"/><path d="m.417 4.625h4.416l1.767-3.533-2.65-3.533z" fill="#a02e2c" transform="matrix(.567961 -1.13592 -1.13592 -.567961 35.736 143.7946)"/><path d="m.417 4.625h4.416l1.767-3.533-2.65-3.533z" fill="#77272c" transform="matrix(.724656 -1.44931 -1.44931 -.724656 43.74 144.1106)"/><path d="m.417 4.625h4.416l1.767-3.533-2.65-3.533-1.063-.475-3.565 7.002z" fill="#93b873" transform="matrix(-.74994 -1.49988 1.49988 -.74994 80.92215 141.95151)"/><path d="m.417 4.625h4.416l1.767-3.533-2.65-3.533z" fill="#93b873" transform="matrix(-.74994 -1.49988 1.49988 -.74994 90.73205 141.95151)"/><path d="m.417 4.625h4.416l1.767-3.533-2.65-3.533z" fill="#71974f" transform="matrix(-.567961 -1.13592 1.13592 -.567961 96.14005 144.83951)"/><path d="m.417 4.625h4.416l1.767-3.533-2.65-3.533z" fill="#4b8046" transform="matrix(-.724656 -1.44931 1.44931 -.724656 88.13605 145.15551)"/><path d="m.417 4.625h4.416l1.767-3.533-2.65-3.533z" fill="#4b8046" transform="matrix(-.724656 -1.44931 1.44931 -.724656 77.03645 145.15551)"/><path d="m.417 4.625h4.416l1.767-3.533-2.65-3.533-1.063-.475-3.565 7.002z" fill="#93b873" transform="matrix(-.74994 -1.49988 1.49988 -.74994 91.05415 141.95151)"/><path d="m.417 4.625h4.416l1.767-3.533-2.65-3.533z" fill="#93b873" transform="matrix(-.74994 -1.49988 1.49988 -.74994 100.86405 141.95151)"/><path d="m.417 4.625h4.416l1.767-3.533-2.65-3.533z" fill="#71974f" transform="matrix(-.567961 -1.13592 1.13592 -.567961 106.27205 144.83951)"/><path d="m.417 4.625h4.416l1.767-3.533-2.65-3.533z" fill="#4b8046" transform="matrix(-.724656 -1.44931 1.44931 -.724656 98.26805 145.15551)"/><path d="m.417 4.625h4.416l1.767-3.533-2.65-3.533z" fill="#71974f" transform="matrix(-.724656 -1.44931 1.44931 -.724656 87.16845 145.15551)"/></g><path d="m24.852 139.736h90.297v10.033h-90.297z" fill="#948976"/></svg>

<?xml version="1.0" encoding="UTF-8" standalone="no"?>
<!DOCTYPE svg PUBLIC "-//W3C//DTD SVG 1.1//EN" "http://www.w3.org/Graphics/SVG/1.1/DTD/svg11.dtd">
<svg width="100%" height="100%" viewBox="0 0 140 220" version="1.1" xmlns="http://www.w3.org/2000/svg" xmlns:xlink="http://www.w3.org/1999/xlink" xml:space="preserve" xmlns:serif="http://www.serif.com/" style="fill-rule:evenodd;clip-rule:evenodd;stroke-linejoin:round;stroke-miterlimit:2;">
    <g id="vendor-hand-cart">
        <g transform="matrix(-0.164255,1.25933,1.25933,0.164255,70.3248,211.872)">
            <path d="M-2.441,-7.43L7.356,-7.43L6.22,-0.905L-3.236,-2.423L-2.441,-7.43Z" style="fill:rgb(52,45,40);fill-rule:nonzero;"/>
        </g>
        <g transform="matrix(1.27,0,0,1.27,70.458,217.966)">
            <path d="M0,-7.936L1.232,1.152L6.04,1.152L6.745,-0.841L5.491,-9.088L0,-7.936Z" style="fill:rgb(52,45,40);fill-rule:nonzero;"/>
        </g>
        <g transform="matrix(1.27,0,0,1.27,79.977,70.9594)">
            <path d="M0,-2.462L-2.58,-4.182L-4.457,-9.499L-8.789,-8.263L-10.163,-4.886L-13.134,-3.4L-6.666,7.037L0,-2.462Z" style="fill:rgb(82,64,56);fill-rule:nonzero;"/>
        </g>
        <g transform="matrix(1.27,0,0,1.27,74.4381,40.4756)">
            <path d="M0,18.294L-3.903,18.294L-8.106,12.89L-7.355,1.332L-5.751,0L2.191,0.08L4.801,1.932L4.65,12.89L0,18.294Z" style="fill:rgb(110,90,77);fill-rule:nonzero;"/>
        </g>
        <g transform="matrix(-1.26982,0.0212461,0.0212461,1.26982,61.2625,54.0012)">
            <path d="M-2.811,-4.495L-0.24,-4.495L0.038,-0.024L-2.586,-0.117L-2.811,-4.495Z" style="fill:rgb(110,90,77);fill-rule:nonzero;"/>
        </g>
        <g transform="matrix(1.22539,0.333639,0.333639,-1.22539,80.9209,48.6756)">
            <path d="M-0.552,-0.42L2.136,-0.42L2.925,-4.095L0.737,-4.783L-0.552,-0.42Z" style="fill:rgb(110,90,77);fill-rule:nonzero;"/>
        </g>
        <g transform="matrix(1.27,0,0,1.27,58.2023,207.96)">
            <path d="M0,-73.345L2.493,-0.302L7.561,-0.442L10.264,-64.12L10.292,-37.943L9.701,0L15.094,-1.173L16.912,-37.528L20.584,-72.877L0,-73.345Z" style="fill:rgb(92,94,95);fill-rule:nonzero;"/>
        </g>
        <g transform="matrix(1.27,0,0,1.27,70.6104,207.399)">
            <path d="M0,-63.769L-0.696,-35.641L-2.209,0L-7.887,-17.728L-8.495,-55.387L0,-63.769Z" style="fill:rgb(58,59,59);fill-rule:nonzero;"/>
        </g>
        <g transform="matrix(1.27,0,0,1.27,99.6697,138.847)">
            <path d="M0,-10.166L1.517,-6.442C1.57,-6.31 1.594,-6.169 1.586,-6.027L1.26,-0.272C1.224,0.374 0.568,0.798 -0.036,0.566L-0.667,0.324C-1.011,0.192 -1.248,-0.125 -1.277,-0.492L-1.722,-6.036L-1.631,-5.196C-1.572,-4.648 -1.988,-4.164 -2.539,-4.139C-3.142,-4.112 -3.619,-4.645 -3.525,-5.242L-2.961,-8.83C-2.929,-9.031 -2.834,-9.217 -2.69,-9.36L-1.558,-10.484C-1.074,-10.964 -0.257,-10.798 0,-10.166" style="fill:rgb(110,90,77);fill-rule:nonzero;"/>
        </g>
        <g transform="matrix(1.27,0,0,1.27,46.4315,141.543)">
            <path d="M0,-10.796L-1.617,-6.718L-1.474,0L1.166,-0.347L1.701,-6.489L1.489,-4.638L3.761,-4.325L2.998,-9.417L0,-10.796Z" style="fill:rgb(110,90,77);fill-rule:nonzero;"/>
        </g>
        <g transform="matrix(1.27,0,0,1.27,63.1518,129.501)">
            <path d="M0,-49.613L-5.668,-47.15L-13.36,-0.547L-10.077,0L-2.698,-42.929L-3.948,-11.568L16.692,-11.098L14.972,-40.426L25.534,-2.855C25.662,-2.263 26.301,-1.937 26.854,-2.182L28.11,-2.736C28.51,-2.913 28.74,-3.339 28.666,-3.771L18.57,-45.43L13.253,-48.676L5.631,-49.129L0,-49.613Z" style="fill:rgb(231,217,180);fill-rule:nonzero;"/>
        </g>
        <g transform="matrix(1.27,0,0,1.27,82.4287,115.405)">
            <path d="M0,-24.796L1.51,0L-19.13,-0.469L-18.95,-5.902" style="fill:rgb(220,205,171);fill-rule:nonzero;"/>
        </g>
        <g transform="matrix(1.27,0,0,1.27,-1179.11,-357.222)">
            <rect x="953.925" y="429.818" width="7.9" height="1.975" style="fill:rgb(100,88,73);"/>
        </g>
        <g transform="matrix(0.567961,-1.13592,-1.13592,-0.567961,74.9213,145.376)">
            <path d="M0.417,4.625L4.833,4.625L6.6,1.092L3.95,-2.441L0.417,4.625Z" style="fill:rgb(75,128,70);fill-rule:nonzero;"/>
        </g>
        <g transform="matrix(-0.567961,1.13592,1.13592,0.567961,61.8713,132.476)">
            <path d="M2.184,-9.249L11.016,-9.249L3.95,4.882L-1.349,-2.184L2.184,-9.249Z" style="fill:rgb(252,232,135);fill-rule:nonzero;"/>
        </g>
        <g transform="matrix(0.567961,-1.13592,-1.13592,-0.567961,80.0013,140.296)">
            <path d="M0.417,4.625L4.833,4.625L6.6,1.092L3.95,-2.441L0.417,4.625Z" style="fill:rgb(147,184,115);fill-rule:nonzero;"/>
        </g>
        <g transform="matrix(0.567961,-1.13592,-1.13592,-0.567961,95.2413,140.296)">
            <path d="M0.417,4.625L4.833,4.625L6.6,1.092L3.95,-2.441L0.417,4.625Z" style="fill:rgb(147,184,115);fill-rule:nonzero;"/>
        </g>
        <g transform="matrix(0.567961,-1.13592,-1.13592,-0.567961,83.8112,142.836)">
            <path d="M0.417,4.625L4.833,4.625L6.6,1.092L3.95,-2.441L0.417,4.625Z" style="fill:rgb(75,128,70);fill-rule:nonzero;"/>
        </g>
        <g transform="matrix(0.567961,-1.13592,-1.13592,-0.567961,90.1613,144.106)">
            <path d="M0.417,4.625L4.833,4.625L6.6,1.092L3.95,-2.441L0.417,4.625Z" style="fill:rgb(113,151,79);fill-rule:nonzero;"/>
        </g>
        <g transform="matrix(0.567961,-1.13592,-1.13592,-0.567961,97.7812,142.836)">
            <path d="M0.417,4.625L4.833,4.625L6.6,1.092L3.95,-2.441L0.417,4.625Z" style="fill:rgb(75,128,70);fill-rule:nonzero;"/>
        </g>
        <g transform="matrix(0.567961,-1.13592,-1.13592,-0.567961,39.3613,140.296)">
            <path d="M0.417,4.625L4.833,4.625L6.6,1.092L3.95,-2.441L0.417,4.625Z" style="fill:rgb(228,159,123);fill-rule:nonzero;"/>
        </g>
        <g transform="matrix(0.567961,-1.13592,-1.13592,-0.567961,34.2812,145.376)">
            <path d="M0.417,4.625L4.833,4.625L6.6,1.092L3.95,-2.441L0.417,4.625Z" style="fill:rgb(160,46,44);fill-rule:nonzero;"/>
        </g>
        <g transform="matrix(0.567961,-1.13592,-1.13592,-0.567961,41.9013,142.836)">
            <path d="M0.417,4.625L4.833,4.625L6.6,1.092L3.95,-2.441L0.417,4.625Z" style="fill:rgb(119,39,44);fill-rule:nonzero;"/>
        </g>
        <g transform="matrix(0.567961,-1.13592,-1.13592,-0.567961,105.401,142.836)">
            <path d="M0.417,4.625L4.833,4.625L6.6,1.092L3.95,-2.441L0.417,4.625Z" style="fill:rgb(147,184,115);fill-rule:nonzero;"/>
        </g>
        <g transform="matrix(1.27,0,0,1.27,115.149,139.736)">
            <path d="M0,7.9L0,0L-71.1,7.9L0,7.9Z" style="fill:rgb(148,137,118);fill-rule:nonzero;"/>
        </g>
        <g transform="matrix(1.27,0,0,1.27,115.149,149.769)">
            <path d="M0,-7.9L-71.1,-7.9L-71.1,0L0,-7.9Z" style="fill:rgb(148,137,118);fill-rule:nonzero;"/>
        </g>
        <g transform="matrix(1.27,0,0,1.27,42.4092,188.647)">
            <path d="M0,-30.613L1.975,-30.613L1.975,0L0,-30.613Z" style="fill:rgb(148,137,118);fill-rule:nonzero;"/>
        </g>
        <g transform="matrix(1.27,0,0,1.27,44.9175,152.277)">
            <path d="M0,28.638L-1.975,30.613L-1.975,-1.975L0,28.638Z" style="fill:rgb(122,112,93);fill-rule:nonzero;"/>
        </g>
        <g transform="matrix(1.27,0,0,1.27,29.868,191.156)">
            <path d="M0,-32.588L1.975,-32.588L1.975,0L0,-32.588Z" style="fill:rgb(122,112,93);fill-rule:nonzero;"/>
        </g>
        <g transform="matrix(1.27,0,0,1.27,29.868,191.156)">
            <path d="M0,-32.588L1.975,0L0,-1.975L0,-32.588Z" style="fill:rgb(148,137,118);fill-rule:nonzero;"/>
        </g>
        <g transform="matrix(1.27,0,0,1.27,38.5752,159.802)">
            <path d="M0,47.4L-1.862,47.4C-2.27,46.992 -2.498,46.764 -2.906,46.356L-2.906,1.044L-1.862,0L0,0L1.044,1.044L1.044,46.356C0.636,46.764 0.408,46.992 0,47.4" style="fill:rgb(41,43,41);fill-rule:nonzero;"/>
        </g>
        <g transform="matrix(1.27,0,0,1.27,-1179.11,-357.222)">
            <rect x="1005.27" y="429.818" width="7.9" height="1.975" style="fill:rgb(100,88,73);"/>
        </g>
        <g transform="matrix(1.27,0,0,1.27,107.624,188.647)">
            <path d="M0,-30.613L1.975,-30.613L1.975,0L0,-30.613Z" style="fill:rgb(148,137,118);fill-rule:nonzero;"/>
        </g>
        <g transform="matrix(1.27,0,0,1.27,110.132,152.277)">
            <path d="M0,28.638L-1.975,30.613L-1.975,-1.975L0,28.638Z" style="fill:rgb(122,112,93);fill-rule:nonzero;"/>
        </g>
        <g transform="matrix(1.27,0,0,1.27,95.0825,191.156)">
            <path d="M0,-32.588L1.975,-32.588L1.975,0L0,-32.588Z" style="fill:rgb(122,112,93);fill-rule:nonzero;"/>
        </g>
        <g transform="matrix(1.27,0,0,1.27,95.0825,191.156)">
            <path d="M0,-32.588L1.975,0L0,-1.975L0,-32.588Z" style="fill:rgb(148,137,118);fill-rule:nonzero;"/>
        </g>
        <g transform="matrix(1.27,0,0,1.27,103.79,159.802)">
            <path d="M0,47.4L-1.862,47.4C-2.27,46.992 -2.498,46.764 -2.906,46.356L-2.906,1.044L-1.862,0L0,0L1.044,1.044L1.044,46.356C0.636,46.764 0.408,46.992 0,47.4" style="fill:rgb(41,43,41);fill-rule:nonzero;"/>
        </g>
    </g>
</svg>
